svgs/duotone/shekel-sign.svg

<svg xmlns="http://www.w3.org/2000/svg" viewBox="0 0 448 512"><!--! Font Awesome Pro 6.4.2 by @fontawesome - https://fontawesome.com License - https://fontawesome.com/license (Commercial License) Copyright 2023 Fonticons, Inc. --><path class="fa-primary" style="fill:var(--fa-primary-color,inherit);opacity:var(--fa-primary-opacity,1);" d="M0 64C0 46.3 14.3 32 32 32H192c70.7 0 128 57.3 128 128V320c0 17.7-14.3 32-32 32s-32-14.3-32-32V160c0-35.3-28.7-64-64-64H64V448c0 17.7-14.3 32-32 32s-32-14.3-32-32V64z"/><path class="fa-secondary" style="fill:var(--fa-secondary-color,inherit);opacity:var(--fa-secondary-opacity,.4);" d="M448 352c0 70.7-57.3 128-128 128H160c-17.7 0-32-14.3-32-32V192c0-17.7 14.3-32 32-32s32 14.3 32 32V416H320c35.3 0 64-28.7 64-64V64c0-17.7 14.3-32 32-32s32 14.3 32 32V352z"/></svg>

<svg xmlns="http://www.w3.org/2000/svg" viewBox="0 0 448 512"><!--! Font Awesome Pro 6.1.1 by @fontawesome - https://fontawesome.com License - https://fontawesome.com/license (Commercial License) Copyright 2022 Fonticons, Inc. --><defs><style>.fa-secondary{opacity:.4}</style></defs><path class="fa-primary" d="M0 64C0 46.33 14.33 32 32 32H192C262.7 32 320 89.31 320 160V320C320 337.7 305.7 352 288 352C270.3 352 256 337.7 256 320V160C256 124.7 227.3 96 192 96H64V448C64 465.7 49.67 480 32 480C14.33 480 0 465.7 0 448V64zM448 352C448 422.7 390.7 480 320 480H160C142.3 480 128 465.7 128 448V192C128 174.3 142.3 160 160 160C177.7 160 192 174.3 192 192V416H320C355.3 416 384 387.3 384 352V64C384 46.33 398.3 32 416 32C433.7 32 448 46.33 448 64V352z"/></svg>
